X:1
T:60 Lessons for 2 Guitars, Op.168 - Joseph Küffner (1776 - 1856)
T:Leçon No.53
T:60 Lessons for 2 Guitars, Op.168 "à l'usage des commençants"
T:Joseph Küffner (1776 - 1856)
%%score { 1 2 } { ( 3 4 ) ( 5 6 ) }
L:1/8
Q:1/4=80
M:2/4
K:F
V:1 treble-8 nm="Classical Guitar"
V:2 tab stafflines=6 strings=E2,A2,D3,G3,B3,E4 nostems nm="Guitare classique [Tablature]"
V:3 treble-8 nm="Guitare classique"
V:4 treble-8 
V:5 tab stafflines=6 strings=E2,A2,D3,G3,B3,E4 nostems nm="Guitare classique [Tablature]"
V:6 tab stafflines=6 strings=E2,A2,D3,G3,B3,E4 nostems 
V:1
 c2 f2"^Andantino" | A2 c2 | B2 d2 | G2 B2 | A2 c2 | F2 A2 | GcBG | F2 z2 :: G2 c2 | E2 G2 | %10
 A2 c2 | F2 A2 | =B2 f2 | d2 =B2 | c2 c2 | =B2 _B2 | A2 f2 | A2 c2 | B2 d2 | G2 B2 | A2 c2 | %21
 F2 A2 | GcBG | F2 z2 :| %24
V:2
 !2!C2 !1!F2 | !3!A,2 !2!C2 | !3!B,2 !2!D2 | !3!G,2 !3!B,2 | !3!A,2 !2!C2 | !4!F,2 !3!A,2 | %6
 !3!G, !2!C !3!B, !3!G, | !4!F,2 x2 :: !3!G,2 !2!C2 | !4!E,2 !3!G,2 | !3!A,2 !2!C2 | %11
 !4!F,2 !3!A,2 | !2!=B,2 !1!F2 | !2!D2 !2!=B,2 | !2!C2 !2!C2 | !2!=B,2 !3!_B,2 | !3!A,2 !1!F2 | %17
 !3!A,2 !2!C2 | !3!B,2 !2!D2 | !3!G,2 !3!B,2 | !3!A,2 !2!C2 | !4!F,2 !3!A,2 | %22
 !3!G, !2!C !3!B, !3!G, | !4!F,2 x2 :| %24
V:3
 z FAF | z FAF | z DBD | z EGE | z FAF | z FAF | z EGE | F,2 [CFA]2 :: z EGE | z EGE | z FAF | %11
 z FAF | z G=BG | z G=BG | ECEC | FCGC | z FAF | z FAF | z DBD | z EGE | z FAF | z FAF | z EGE | %23
 F,2 [CFA]2 :| %24
V:4
 F,4 | D4 | G,4 | C4 | F,4 | C4 | C4 | x4 :: C4 | C4 | C4 | C4 | D4 | F4 | x4 | x4 | F,4 | D4 | %18
 G,4 | C4 | F,4 | C4 | C4 | x4 :| %24
V:5
 x !4!F, !3!A, !4!F, | x !4!F, !3!A, !4!F, | x !4!D, !3!B, !4!D, | x !4!E, !3!G, !4!E, | %4
 x !4!F, !3!A, !4!F, | x !4!F, !3!A, !4!F, | x !4!E, !3!G, !4!E, | !6!F,,2 [!5!C,!4!F,!3!A,]2 :: %8
 x !4!E, !3!G, !4!E, | x !4!E, !3!G, !4!E, | x !4!F, !3!A, !4!F, | x !4!F, !3!A, !4!F, | %12
 x !3!G, !2!=B, !3!G, | x !3!G, !2!=B, !3!G, | !4!E, !5!C, !4!E, !5!C, | !4!F, !5!C, !3!G, !5!C, | %16
 x !4!F, !3!A, !4!F, | x !4!F, !3!A, !4!F, | x !4!D, !3!B, !4!D, | x !4!E, !3!G, !4!E, | %20
 x !4!F, !3!A, !4!F, | x !4!F, !3!A, !4!F, | x !4!E, !3!G, !4!E, | !6!F,,2 [!5!C,!4!F,!3!A,]2 :| %24
V:6
 !6!F,,4 | !5!D,4 | !6!G,,4 | !5!C,4 | !6!F,,4 | !5!C,4 | !5!C,4 | x4 :: !5!C,4 | !5!C,4 | !5!C,4 | %11
 !5!C,4 | !4!D,4 | !4!F,4 | x4 | x4 | !6!F,,4 | !5!D,4 | !6!G,,4 | !5!C,4 | !6!F,,4 | !5!C,4 | %22
 !5!C,4 | x4 :| %24

